src/assets/tokens/ANGLE-avax.svg

<svg width="194" height="194" viewBox="0 0 194 194" fill="none" xmlns="http://www.w3.org/2000/svg">
<circle cx="97" cy="97" r="97" fill="#FAF1E7"/>
<path d="M154.547 119.309L97.0596 62.1619L39.5719 119.309L68.3161 147.882L97.06 119.309L125.803 147.882L154.547 119.309Z" fill="white"/>
<path d="M97.0593 119.308L125.803 147.885L131.552 133.734L97.0593 99.4463L97.0593 119.308Z" fill="#FAF1E7" stroke="#1F2333" stroke-width="1.71294" stroke-linejoin="round"/>
<path d="M154.551 119.302L125.804 147.876L131.553 133.734L166.045 99.4463L154.551 119.302Z" fill="#1F2333" stroke="#1F2333" stroke-width="1.71294" stroke-linejoin="round"/>
<path d="M97.0601 119.308L68.316 147.885L62.5674 133.734L97.0601 99.4463L97.0601 119.308Z" fill="#1F2333" stroke="#1F2333" stroke-width="1.71294" stroke-linejoin="round"/>
<path d="M39.5683 119.302L68.3155 147.876L62.5669 133.734L28.0742 99.4463L39.5683 119.302Z" fill="#FAF1E7" stroke="#1F2333" stroke-width="1.71294" stroke-linejoin="round"/>
<path d="M166.045 99.4437L97.0594 30.8677L28.0741 99.4437L62.5671 133.732L97.0598 99.4442L131.552 133.732L166.045 99.4437Z" fill="url(#paint0_linear_5043_60904)" stroke="#1F2333" stroke-width="1.71294" stroke-linejoin="round"/>
<g opacity="0.9">
<circle cx="97.0291" cy="47.0291" r="36.0291" fill="white"/>
</g>
<path d="M107.513 46.0995C108.471 44.5779 110.001 44.5779 110.959 46.0995L116.893 55.7061C117.851 57.2277 117.069 58.4653 115.165 58.4653H103.197C101.315 58.4653 100.533 57.2277 101.469 55.7061L107.513 46.0995ZM96.0299 27.6066C96.9878 26.0849 98.4961 26.0849 99.4539 27.6066L100.775 29.8079L103.891 34.8597C104.65 36.3002 104.65 37.9942 103.891 39.4347L93.4207 56.1525C92.4629 57.5118 90.8885 58.374 89.127 58.4653H80.4405C78.5358 58.4653 77.7541 57.248 78.712 55.7061L96.0299 27.6066Z" fill="#E84142"/>
<defs>
<linearGradient id="paint0_linear_5043_60904" x1="166.044" y1="82.2992" x2="28.0741" y2="82.2992" gradientUnits="userSpaceOnUse">
<stop stop-color="#FAF1E7"/>
<stop offset="0.26021" stop-color="#FDCEAA"/>
<stop offset="0.61201" stop-color="#F4837D"/>
<stop offset="0.9999" stop-color="#B9AAFD"/>
</linearGradient>
</defs>
</svg>

<svg fill="none" height="194" width="194" xmlns="http://www.w3.org/2000/svg"><linearGradient id="a" gradientUnits="userSpaceOnUse" x1="166.044" x2="28.074" y1="82.299" y2="82.299"><stop offset="0" stop-color="#faf1e7"/><stop offset=".26" stop-color="#fdceaa"/><stop offset=".612" stop-color="#f4837d"/><stop offset="1" stop-color="#b9aafd"/></linearGradient><circle cx="97" cy="97" fill="#faf1e7" r="97"/><path d="M154.547 119.309L97.06 62.162l-57.488 57.147 28.744 28.573 28.744-28.573 28.743 28.573z" fill="#fff"/><g stroke="#1f2333" stroke-linejoin="round" stroke-width="1.713"><path d="M97.06 119.308l28.743 28.577 5.749-14.151-34.493-34.288z" fill="#faf1e7"/><path d="M154.551 119.302l-28.747 28.574 5.749-14.142 34.492-34.288zm-57.49.006l-28.745 28.577-5.749-14.151L97.06 99.446z" fill="#1f2333"/><path d="M39.568 119.302l28.748 28.574-5.75-14.142-34.492-34.288z" fill="#faf1e7"/><path d="M166.045 99.444L97.059 30.868 28.074 99.444l34.493 34.288L97.06 99.444l34.492 34.288z" fill="url(#a)"/></g><circle cx="97.029" cy="47.029" fill="#fff" opacity=".9" r="36.029"/><path d="M107.513 46.1c.958-1.522 2.488-1.522 3.446 0l5.934 9.606c.958 1.522.176 2.76-1.728 2.76h-11.968c-1.882 0-2.664-1.238-1.728-2.76zM96.03 27.607c.958-1.522 2.466-1.522 3.424 0l1.321 2.2 3.116 5.053a4.88 4.88 0 0 1 0 4.575l-10.47 16.718c-.958 1.359-2.532 2.221-4.294 2.312h-8.686c-1.905 0-2.687-1.217-1.729-2.759z" fill="#e84142"/></svg>
